assets/svg/send_email_icon.svg

<svg fill="none" height="18" viewBox="0 0 22 18" width="22" xmlns="http://www.w3.org/2000/svg"><path d="m19.25.75h-16.5c-1.24046 0-2.25 1.00954-2.25 2.25v12c0 1.2405 1.00954 2.25 2.25 2.25h16.5c1.2405 0 2.25-1.0095 2.25-2.25v-12c0-1.24046-1.0095-2.25-2.25-2.25zm-.4995 1.5-7.2998 5.475c-.2655.19875-.6361.19875-.9008 0l-7.30042-5.475zm.4995 13.5h-16.5c-.41398 0-.75-.3367-.75-.75v-11.8124l7.65 5.7376c.3967.29774.8738.44704 1.35.44704s.9533-.14922 1.35-.44704l7.65-5.7376v11.8124c0 .4133-.336.75-.75.75z" fill="#7200a6"/></svg>

<svg width="22" height="18" viewBox="0 0 22 18" fill="none" xmlns="http://www.w3.org/2000/svg">
<path d="M19.25 0.75H2.75C1.50954 0.75 0.5 1.75954 0.5 3V15C0.5 16.2405 1.50954 17.25 2.75 17.25H19.25C20.4905 17.25 21.5 16.2405 21.5 15V3C21.5 1.75954 20.4905 0.75 19.25 0.75ZM18.7505 2.25L11.4507 7.725C11.1852 7.92375 10.8146 7.92375 10.5499 7.725L3.24948 2.25H18.7505ZM19.25 15.75H2.75C2.33602 15.75 2 15.4133 2 15V3.1876L9.65 8.9252C10.0467 9.22294 10.5238 9.37224 11 9.37224C11.4762 9.37224 11.9533 9.22302 12.35 8.9252L20 3.1876V15C20 15.4133 19.664 15.75 19.25 15.75Z" fill="#7200A6"/>
</svg>
